X:
T:Viel Glück und viel Segen
C:Stimme in c
M:3/4
L:1/4
K:C
V:
"1"G | "F"c B A1/2B1/2 | "C"c !breath!G "2"G | "G"A G F | "C"E !breath!G
w: Viel Glück und viel_ Se-gen auf all dei-nen We-gen,
"3"E | "F"F G A | "C"G !breath!E "4"G | "G"F1/2E1/2 D D | "C"C2 |]
w: Ge-sund-heit und Froh-sinn sei auch_ mit da-bei.
